icons/mist-fill.svg

<svg width="24" height="24" fill="none" xmlns="http://www.w3.org/2000/svg"><g clip-path="url(#a)"><path d="M4 4h4v2H4V4Zm12 15h4v2h-4v-2ZM2 9h10v2H2V9Zm12 0h6v2h-6V9ZM4 14h6v2H4v-2Zm8 0h10v2H12v-2ZM10 4h12v2H10V4ZM2 19h12v2H2v-2Z" /></g><defs><clipPath id="a"><path fill="#fff" d="M0 0h24v24H0z"/></clipPath></defs></svg>

<svg xmlns="http://www.w3.org/2000/svg" width="24" height="24" fill="none"><g clip-path="url(#a)"><g><path fill="#121212" d="M4 4H8V6H4V4ZM16 19H20V21H16V19ZM2 9H12V11H2V9ZM14 9H20V11H14V9ZM4 14H10V16H4V14ZM12 14H22V16H12V14ZM10 4H22V6H10V4ZM2 19H14V21H2V19Z"/></g></g><defs><clipPath id="a"><rect width="24" height="24" fill="white"/></clipPath></defs></svg>
